material/.icons/material/engine-outline.svg

<svg xmlns="http://www.w3.org/2000/svg" viewBox="0 0 24 24"><path d="M8 10h8v8h-5l-2-2H7v-5m0-7v2h3v2H7l-2 2v3H3v-3H1v8h2v-3h2v3h3l2 2h8v-4h2v3h3V9h-3v3h-2V8h-6V6h3V4H7z"/></svg>

<?xml version="1.0" encoding="UTF-8"?><!DOCTYPE svg PUBLIC "-//W3C//DTD SVG 1.1//EN" "http://www.w3.org/Graphics/SVG/1.1/DTD/svg11.dtd"><svg xmlns="http://www.w3.org/2000/svg" xmlns:xlink="http://www.w3.org/1999/xlink" version="1.1" id="mdi-engine-outline" width="24" height="24" viewBox="0 0 24 24"><path d="M8,10H16V18H11L9,16H7V11M7,4V6H10V8H7L5,10V13H3V10H1V18H3V15H5V18H8L10,20H18V16H20V19H23V9H20V12H18V8H12V6H15V4H7Z" /></svg>
